!!!!SEGMENT: pl-wtm--r-106-m_moniuszko-stanislaw--powrot-wiosny.krn
!!!cenid: 18xx:2970
!!!COM: Moniuszko, Stanisław
!!!COM-rismid: pe30008351
!!!CDT: 1819/05/05-1872/06/04
!!!CNT: Polish
!!!OTL: Powrót wiosny
!!!PDT:
!!!AGN: Secular
!!!SMS-siglum: PL-Wtm
!!!SMS-shelfmark: R 106/M
!!!SMS-shelfwork: W
!!!SMS-variant:
!!!SMS-altvar:
!!!NIFC-rismid: 1001096534
!!!URL-scan: http://repozytorium.nifc.pl/skany/pl-wtm-nut--r106m
!!!ONB-nifc:
!!!OMD: Allegretto.
**kern	**kern	**fing	**dynam	**kern	**text	**text	**text	**text	**dynam
*part2	*part2	*part2	*part2	*part1	*part1	*part1	*part1	*part1	*part1
*staff3	*staff2	*staff2	*	*staff1	*staff1	*staff1	*staff1	*staff1	*
*	*I"[Fortepian]	*	*	*I"[Głos]	*	*	*	*	*
*clefF4	*clefG2	*	*	*clefG2	*	*	*	*	*
*k[]	*k[]	*	*	*k[]	*	*	*	*	*
*C:	*C:	*	*	*C:	*	*	*	*	*
*M3/4	*M3/4	*	*	*M3/4	*	*	*	*	*
*	*	*	*	*all\right	*	*	*	*	*
*>[A,B,B,B,B,C]	*>[A,B,B,B,B,C]	*	*	*>[A,B,B,B,B,C]	*	*	*	*	*
=1	=1	=1	=1	=1	=1	=1	=1	=1	=1
*>A	*>A	*	*	*>A	*	*	*	*	*
*^	*	*	*	*	*	*	*	*	*
*2\right	*	*	*	*	*	*	*	*	*	*
4r	2.C\	4r	.	p	2.r	.	.	.	.	.
4G/	.	4c/ 4e 4g	.	.	.	.	.	.	.	.
4G/	.	4c/ 4e 4g	.	.	.	.	.	.	.	.
=2	=2	=2	=2	=2	=2	=2	=2	=2	=2	=2
! 	!	!	!	!	!LO:TX:a:i:t=Pannie Emilji Mołochowiec&colon;\nPowrót wiosny.(&colon;poezja Gustawa Zielińskiego&colon;)	!	!	!	!	!
4r	2.C\	4r	.	.	2.r	.	.	.	.	.
4G/	.	4c/ 4e 4g	.	.	.	.	.	.	.	.
4G/	.	4c/ 4e 4g	.	.	.	.	.	.	.	.
*v	*v	*	*	*	*	*	*	*	*	*
=3!|:	=3!|:	=3!|:	=3!|:	=3!|:	=3!|:	=3!|:	=3!|:	=3!|:	=3!|:
*>B	*>B	*	*	*>B	*	*	*	*	*
!	!	!	!	!	!	!	!	!	!LO:DY:a
4CC/	4r	.	.	(4g/	Słoń-	I	Sko-	O	p
4E\ 4G	4c/ 4g	.	.	4cc\	-ce	znów	-wro-	gdy-	.
4G\ 4c	4e/ 4g	.	.	4b\	się	na	-nek	-by	.
=4	=4	=4	=4	=4	=4	=4	=4	=4	=4
*^	*	*	*	*	*	*	*	*	*
4r	2.C\	4r	.	.	4dd\	z_mgli-	zie-	wzbił	ser-	.
4G/	.	4c/ 4e 4g	.	.	4cc\	-stych	-mię	się	-ce	.
4G/	.	4e/ 4g	.	.	4ee\	o-	po-	w_po-	tak	.
*v	*v	*	*	*	*	*	*	*	*	*
=5	=5	=5	=5	=5	=5	=5	=5	=5	=5
*	*	*	*	*2\right	*	*	*	*	*
4FF/	4r	.	.	2dd^\	-trzą-	-wra-	-wietrz-	mo-	.
4F\ 4A	4c/ 4d 4a	.	.	.	.	.	.	.	.
4F\ 4A	4c/ 4d 4a	.	.	4cc\	-sa	-ca	-ny	-gło	.
=6	=6	=6	=6	=6	=6	=6	=6	=6	=6
*^	*	*	*	*	*	*	*	*	*
4r	2.F\	4r	.	.	2a/)	chmur.	raj.	szlak.	żyć!	.
4A/ 4c	.	4d/ 4a	.	.	.	.	.	.	.	.
4A/ 4c	.	4d/ 4a	.	.	4r	.	.	.	.	.
*v	*v	*	*	*	*	*	*	*	*	*
=7	=7	=7	=7	=7	=7	=7	=7	=7	=7
4GG/	4r	.	.	(>4g/	Z_do-	Po-	Mi-	tak	.
4r	4B/ 4d 4g	.	.	4d/	-lin	-la	-ły	słod-	.
4r	4c/ 4e 4g	.	.	4e/	i	i	to	-ko	.
=8	=8	=8	=8	=8	=8	=8	=8	=8	=8
4G\	4r	.	.	2.f/)	gór	gaj	ptak,	śnić!	.
4r	4B/ 4d 4g	.	.	.	.	.	.	.	.
4r	4B/ 4d 4g	.	.	.	.	.	.	.	.
=9	=9	=9	=9	=9	=9	=9	=9	=9	=9
4C/	4r	.	.	(>4e/	zi-	na-	gdy	z_ma-	.
4r	4c/ 4d#X 4f#X	.	.	4d#X/	-mo-	-peł-	na	-rzeń	.
4r	4c/ 4e 4g	.	.	4e/	-we	-nia	skrzy-	u-	.
=10	=10	=10	=10	=10	=10	=10	=10	=10	=10
4G\	4r	.	.	2a/	snież-	nó-	-deł-	-więd-	.
4r	4c/ 4e	.	.	.	.	.	.	.	.
4r	4c/ 4e 4g	.	.	4g/	-ne	-ta	-kach	-łych,	.
!!LO:LB:g=original
=11	=11	=11	=11	=11	=11	=11	=11	=11	=11
2.BB/	4r	.	.	4g/	spa-	ja-	za-	Z_u-	.
.	4d/ 4f 4g	.	.	4.d/	-da	-kaś	-wie-	-czuć	.
!	!LO:TX:b:t=cres___cen___do:ext:ud:problem:dynamics with extention lines	!	!LO:HP:t=cres___cen___do:ext:ud	!	!	!	!	!	!
.	4d/ 4f 4g	.	<	.	.	.	.	.	.
.	.	.	.	8e/	o-	ra-	-szon	za-	.
=12	=12	=12	=12	=12	=12	=12	=12	=12	=12
2.G\	4r	.	.	(4.f/	-kry-	-doś-	śpie-	-wo-	.
.	4B/ 4d 4g	.	.	.	.	.	.	.	.
.	.	.	.	8g/)	.	.	.	.	.
.	4B/ 4d 4g	.	.	4f/)	-cie:	-na,	-wa,	-du	.
=13	=13	=13	=13	=13	=13	=13	=13	=13	=13
*	*	*	*	*^	*	*	*	*	*
*	*	*	*	*Xtuplet	*	*	*	*	*	*
2.C/	4r	.	.	(12e/L	4e\	ja-	Kwiat	i	po	.
.	.	.	.	12f/	.	.	.	.	.	.
.	.	.	.	12e/J	.	.	.	.	.	.
.	4c/ 4e 4g	.	.	4d/	4ryy	-snym	swe	ca-	bu-	.
.	4c/ 4e 4g	.	.	4c/	4ryy	po-	tu-	-ły	-rzach	.
*	*	*	*	*v	*v	*	*	*	*	*
=14	=14	=14	=14	=14	=14	=14	=14	=14	=14
2.AA/	4r	.	.	[2cc\	-łys-	-lą-	u-	ży-	.
.	4c/ 4e 4f#X	.	.	.	.	.	.	.	.
.	4c/ 4e 4f#	.	.	8cc\]	.	.	.	.	.
.	.	.	.	8b\	-kiem	-ce	-rok	-cia	.
=15	=15	=15	=15	=15	=15	=15	=15	=15	=15
4BB/	4r	.	.	4b/	śre-	zrzu-	roz-	znów	.
4r	4B/ 4d#X 4f#X	.	.	4f#X/	-brzą	-ca	-kwit-	się	.
!LO:TX:t=P:problem:brak 4r	!	!	!	!	!	!	!	!	!
4ryy	4B/ 4e 4g	.	.	4g/	się	o-	-łej	o-	.
=16	=16	=16	=16	=16	=16	=16	=16	=16	=16
4B\	4r	.	.	(4.a/	wo-	-słon-	Wios-	-cu-	.
!	!LO:SIC:v:n=2:s=4f#	!	!	!	!	!	!	!	!
4r	4d#X/ 4f 4a	.	.	.	.	.	.	.	.
.	.	.	.	8b/))	.	.	.	.	.
!	!LO:SIC:v:n=2:s=4f#	!	!	!	!	!	!	!	!
4r	4B/ 4d# 4f 4a	.	.	8a/	-dy,	-ki,	-ny,	-cić,	.
.	.	.	.	8r	.	.	.	.	.
=17	=17	=17	=17	=17	=17	=17	=17	=17	=17
!	!	!	!	!	!	!	!	!	!LO:DY:a
4E\	4e/ 4g	.	sf	(4g/	w_ło-	wo-	w_swój	Ko-	<
!	!	!	!	!LO:TX:a:t=ra - - lent.	!	!	!	!	!
4r	4r	.	.	4cc\	-nie	-nią	spiew	-chać	.
4r	4r	.	.	4b\	przy-	tchną	mi-	i	.
=18	=18	=18	=18	=18	=18	=18	=18	=18	=18
2.r	2.r	.	.	4dd\	-ro-	łą-	-łoś-	nó-	.
.	.	.	.	4cc\)	-dy	-ki:	-ny	-cić	.
.	.	.	.	8r	.	.	.	.	[
.	.	.	.	8ee\	tchnie	to	prze-	jak	.
!!LO:LB:g=original
=19	=19	=19	=19	=19	=19	=19	=19	=19	=19
*^	*	*	*	*	*	*	*	*	*
4GGG\	(>[2.GG/	4r	.	f	([2.gg\	ży-	wios-	-le-	z_mło-	.
4G/	.	(>4B/ 4g	.	>	.	.	.	.	.	.
4F#X/	.	4c/ 4a	.	.	.	.	.	.	.	.
=20	=20	=20	=20	=20	=20	=20	=20	=20	=20	=20
*	*	*^	*	*	*	*	*	*	*	*
4Fn/	2GG\]	4d/ 4b	4ryy	.	.	2.gg\]	.	.	.	.	.
4AA/	.	4.ee;/	4g\	.	.	.	.	.	.	.	.
4BB/)	4ryy	.	4f\	.	.	.	.	.	.	.	.
.	.	(8dd/)	.	.	]	.	.	.	.	.	.
*v	*v	*	*	*	*	*	*	*	*	*	*
*	*v	*v	*	*	*	*	*	*	*	*
=21	=21	=21	=21	=21	=21	=21	=21	=21	=21
!	!	!	!	!LO:TX:a:i:t=a tempo.	!	!	!	!	!
4CC/ 4C	8e/) 8cc	.	.	4cc\)	-cie.	-na!	-wa.	-du!	.
.	8r	.	.	.	.	.	.	.	.
!	!	!	!LO:DY:rj	!	!	!	!	!	!
4E\ 4G 4c	((4.cc^/ 4.ccc	.	f	4r	.	.	.	.	.
4E\ 4G 4c	.	.	.	4r	.	.	.	.	.
.	8b/) 8bb	.	.	.	.	.	.	.	.
=22	=22	=22	=22	=22	=22	=22	=22	=22	=22
.	8qccc/	.	.	.	.	.	.	.	.
4EE/	4b/ 4bb	.	.	2.r	.	.	.	.	.
4E\ 4G 4c	(4.a/ 4.aa	.	.	.	.	.	.	.	.
4E\ 4G 4c	.	.	.	.	.	.	.	.	.
.	8g/) 8gg	.	.	.	.	.	.	.	.
=23	=23	=23	=23	=23	=23	=23	=23	=23	=23
.	8qaa/	.	.	.	.	.	.	.	.
4DD/	(4g/ 4gg	.	.	2.r	.	.	.	.	.
4D\ 4A 4c	4f#X/ 4ff#X	.	.	.	.	.	.	.	.
4D\ 4A 4c	4dd\ 4ddd	.	.	.	.	.	.	.	.
=24	=24	=24	=24	=24	=24	=24	=24	=24	=24
4GG/	2.fn^/)) 2.ffn	.	.	2.r	.	.	.	.	.
4D\ 4B	.	.	.	.	.	.	.	.	.
4D\ 4B	.	.	.	.	.	.	.	.	.
=25	=25	=25	=25	=25	=25	=25	=25	=25	=25
4GG#X/	(8e/L	.	p	2.r	.	.	.	.	.
.	8b/	.	.	.	.	.	.	.	.
4E\ 4B	8ee/J	.	.	.	.	.	.	.	.
.	8ee\L	.	.	.	.	.	.	.	.
4AA\ 4E 4A	8ccc\	.	.	.	.	.	.	.	.
.	8eee\J	.	.	.	.	.	.	.	.
=26	=26	=26	=26	=26	=26	=26	=26	=26	=26
4FF/	8ddd\L	4	.	2.r	.	.	.	.	.
.	8aa\	2	.	.	.	.	.	.	.
4F\ 4A 4d	8ff\	1	.	.	.	.	.	.	.
.	8dd\	4	.	.	.	.	.	.	.
4F\ 4A 4d	8a\	.	.	.	.	.	.	.	.
.	8f\J)	.	.	.	.	.	.	.	.
!!LO:LB:g=original
=27	=27	=27	=27	=27	=27	=27	=27	=27	=27
4GG/	(8e/L	2	.	2.r	.	.	.	.	.
.	8g/	3	<	.	.	.	.	.	.
4E\ 4G 4c	8cc/	1	.	.	.	.	.	.	.
.	8ee/	.	.	.	.	.	.	.	.
4E\ 4G 4c	8gg/	.	.	.	.	.	.	.	.
.	8ccc/J	.	[	.	.	.	.	.	.
=28	=28	=28	=28	=28	=28	=28	=28	=28	=28
4GG/	8bb/L	4	.	2.r	.	.	.	.	.
.	8gg/	2	>	.	.	.	.	.	.
4D\ 4G 4B	8ff/	1	.	.	.	.	.	.	.
.	8dd/	4	.	.	.	.	.	.	.
4F\ 4G 4d	8b/	2	]	.	.	.	.	.	.
.	8g/J)	1	.	.	.	.	.	.	.
=29:|!	=29:|!	=29:|!	=29:|!	=29:|!	=29:|!	=29:|!	=29:|!	=29:|!	=29:|!
*>C	*>C	*	*	*>C	*	*	*	*	*
*^	*	*	*	*	*	*	*	*	*
4r	[2.C\	(12cc\L	.	pp	2.r	.	.	.	.	.
.	.	12dd\	.	.	.	.	.	.	.	.
.	.	12cc\J	.	.	.	.	.	.	.	.
4E/ 4G	.	8b\L	.	.	.	.	.	.	.	.
.	.	8cc\	.	.	.	.	.	.	.	.
4E/ 4G 4c	.	8ee\	.	.	.	.	.	.	.	.
.	.	8gg\J	.	.	.	.	.	.	.	.
=30	=30	=30	=30	=30	=30	=30	=30	=30	=30	=30
4E/ 4G 4c	4C\]	4ccc'\)	.	.	2.r	.	.	.	.	.
4r	4ryy	4r	.	.	.	.	.	.	.	.
!	!	!	!	!LO:DY:rj	!	!	!	!	!	!
4CC'/ [<4C	4ryy	4e'/ 4g 4ee	.	f	.	.	.	.	.	.
*v	*v	*	*	*	*	*	*	*	*	*
=31	=31	=31	=31	=31	=31	=31	=31	=31	=31
!LO:XT:b:i:t=Stanisław Moniuszko	!	!	!	!	!	!	!	!	!
2.C;\] 2.G 2.c	2.e;/ 2.g 2.cc	.	.	2.r;	.	.	.	.	.
==	==	==	==	==	==	==	==	==	==
*-	*-	*-	*-	*-	*-	*-	*-	*-	*-
!!!system-decoration: [(s1,s2,s3)]
!!!RDF**kern: < = below
!!!RDF**kern: > = above
!!!RDF**dynam: sf = "sf."
!!!RDF**dynam: p = "p."
!!!RDF**dynam: pp = "pp."
!!!RDF**dynam: f = "f."
!!!ENC: Katarzyna Serwa
!!!END: 2021-08-16
!!!ENC: Marta Chmielewska
!!!END: 2021-09-09
